!!!!SEGMENT: pl-cz--ii-87--001-002_zientarski-romuald-teodor--msza-swieta-gloria.krn
!!!cenid: 18xx:1163
!!!COM: Zientarski, Romuald Teodor
!!!COM-rismid: pe30001080
!!!CDT: ~1830-1874
!!!CNT: Polish
!!!OPR: Msza Święta
!!!OTL: Gloria
!!!OMV: 002
!!!PDT: 1888
!!!AGN: Sacred; Mass
!!!SMS-siglum: PL-CZ
!!!SMS-shelfmark: II-87
!!!SMS-shelfwork: 001-002 M
!!!SMS-variant:
!!!SMS-altvar:
!!!NIFC-rismid: 300033224
!!!OMD: Allegro con ſpirito.
!!!system-decoration: s1[(s2,s3)]
!!!AIN: 1 empty 1 violn 1 vox
!!!key:
**kern	**kern	**dynam	**kern	**text	**dynam
*part3	*part2	*part2	*part1	*part1	*part1
*staff3	*staff2	*	*staff1	*staff1	*
*Iempty	*Ivioln	*	*Ivox	*	*
*I"[Basso]	*I"[Violino]	*	*I"[Voce]	*	*
*I'[B]	*I'[V]	*	*I'[C]	*	*
*clefF4	*clefG2	*	*clefG2	*	*
*Trd0c0	*	*	*	*	*
*k[b-]	*k[b-]	*	*k[b-]	*	*
*F:	*F:	*	*F:	*	*
*M4/4	*M4/4	*	*M4/4	*	*
*met(c)	*met(c)	*	*met(c)	*	*
=1	=1	=1	=1	=1	=1
*	*^	*	*	*	*
!	!	!LO:TX:a:t=P:problem=note position	!	!	!	!
!	!	!	!LO:DY:b:rj	!	!	!LO:DY:b:rj
(>2.c &(<2.C\	(<2.cc/	1cc	f	2.cc\	Chwa-	f
4A) 4BB-\&)	4ee/	.	.	4ee\	-ła	.
*	*v	*v	*	*	*	*
=2	=2	=2	=2	=2	=2
2A 2AA\	(>2ff 2cc [<2f\)	.	2ff\	Pa-	.
2B- 2BB-\	2dd 2b- 2f/])	.	2dd\	-nu	.
=3	=3	=3	=3	=3	=3
1c 1C	2cc 2a/	.	(>2cc\	na	.
.	4b- 4g/	.	4b-\)	.	.
.	4g 4e/	.	4g/	sy-	.
=4	=4	=4	=4	=4	=4
*^	*^	*	*	*	*
2c/	2F\	2a 2f/	2ryy	.	2a/	-o-	.
(>8FL 8FF^>\	2ryy	(>8f/L	8f\	.	4f/	-nie	.
8E 8EE\	.	8e/	8r	.	.	.	.
8F 8FF\	.	8f/	4r	.	4r	.	.
8GJ 8GG\)	.	8g/J)	.	.	.	.	.
*v	*v	*	*	*	*	*	*
=5	=5	=5	=5	=5	=5	=5
!	!	!LO:TX:a:t=P:problem=note position	!	!	!	!
(>2.A &(<2.AA\	N[<2.a/	1a	.	2.a/	chwa-	.
4G) 4GG/&)	4cc#X/	.	.	4cc#X\	-ła	.
=6	=6	=6	=6	=6	=6	=6
!	!LO:N:n=2:vis=2..	!	!	!	!	!
2F 2FF/	2dd 2aN]/	2d\	.	2dd\	Pa-	.
2C#X 2CC#X/	2ee\	2e\	.	2ee\	-nu	.
*	*v	*v	*	*	*	*
=7	=7	=7	=7	=7	=7
(<2D 2DD/	2ff 2a 2f\	.	(>2ff\	na	.
4E 4EE/	4ee 4cc#X 4a\	.	4ee\)	.	.
4F 4FF/)	4dd 4a 4f/	.	4dd\	sy-	.
=8	=8	=8	=8	=8	=8
2A 2AA\	(>2cc#X &(<2a/	.	2cc#X/	-o-	.
4A 4D\	4dd) 4f/&)	.	4dd\	-nie	.
4r	4r	.	4r	.	.
!!LO:PB:g=original
=9	=9	=9	=9	=9	=9
1r	2dd 2b-\	.	2dd\	Niech	.
.	2cc 2a\	.	2cc\	się	.
=10	=10	=10	=10	=10	=10
*^	*	*	*	*	*
2r	1C	2.b- 2.g/	.	2.b-\	zle-	.
4c/	.	.	.	.	.	.
4B-/	.	4g 4e/	.	4g/	-je	.
=11	=11	=11	=11	=11	=11	=11
2.A/	[<1F	2.a 2.f/	.	2.a/	niech	.
(>4F/	.	4b- 4g/	.	4b-\	ze-	.
=12	=12	=12	=12	=12	=12	=12
*	*	*^	*	*	*	*
2B-/)	2.F\]	(>2dd/	2.f\	.	2dd\	-spo-	.
4A/	.	4cc/)	.	.	4cc\	-li	.
4r	4ryy	4r	4ryy	.	4r	.	.
=13	=13	=13	=13	=13	=13	=13	=13
(<4A/	1rBB	4cc/	2f\	.	(4cc\	Po-	.
8B-/L	.	8dd/L	.	.	8dd\L	.	.
8A/J	.	8cc/J	.	.	8cc\J	.	.
4G/	.	4b-/	4e\	.	4b-\	.	.
4F/)	.	4a 4f/	4ryy	.	4a/)	-koj	.
=14	=14	=14	=14	=14	=14	=14	=14
4r	1C	2g/	2e\	.	(<2g/	swię-	.
(<4B-/L	.	.	.	.	.	.	.
4A/	.	4a/	4f\	.	4a/	.	.
4G/)	.	4b-/	4e\	.	4b-/)	-ty	.
*v	*v	*	*	*	*	*	*
*	*v	*v	*	*	*	*
=15	=15	=15	=15	=15	=15
(<[>1F	2.a 2.f/	.	2.a 2.f/	niech	.
.	4b- 4g/	.	4b- 4g/	o-	.
=16	=16	=16	=16	=16	=16
*^	*	*	*	*	*
2.F/]	2.FF\)	2dd 2b-\	.	2dd\	-wia-	.
.	.	4cc 4a\	.	4cc\	-nie	.
!	!	!	!LO:DY:b:Bi:t=%s.	!	!	!LO:DY:b:Bi:t=%s.
4r	4ryy	4r	mf	4r	.	mf
!!LO:LB:g=original
=17	=17	=17	=17	=17	=17	=17
*	*	*^	*	*	*	*
!	!	!	!	!LO:DY:b:Bi:t=%s.:rj	!	!	!LO:DY:b:Bi:t=%s.:rj
(>2.c/	(<2.E\	2cc/	2g\	mf	(>2cc\	Niech	mf
.	.	4b-/	4ryy	.	4b-\	.	.
4B-/)	4C\)	4g/	4e\	.	4g/)	się	.
*	*	*v	*v	*	*	*	*
=18	=18	=18	=18	=18	=18	=18
(>2c/	1F	(>2a &(<2f/	.	2a/	zle-	.
2A/)	.	2cc) 2a/&)	.	2cc\	-je	.
*v	*v	*	*	*	*	*
=19	=19	=19	=19	=19	=19
*	*^	*	*	*	*
[>1F [<1FF	(>2ff/	2a\	.	(>2ff\	niech	.
.	4ee/	4cc\	.	4ee\	.	.
.	4dd/	4b-\	.	4dd\)	ze-	.
=20	=20	=20	=20	=20	=20	=20
1F] 1FF]	2cc/)	2a\	.	2cc\	-spo-	.
.	4a 4f/	2ryy	.	4a/	-li	.
.	4r	.	.	4r	.	.
=21	=21	=21	=21	=21	=21	=21
1F 1FF	(>2.cc/	1a	.	2.cc\	Po-	.
.	4ff/)	.	.	4ff\	-koj	.
=22	=22	=22	=22	=22	=22	=22
2G 2GG/	2ee/	2b-\	.	2ee\	swię-	.
2B- 2C/	2g 2e/	2ryy	.	2g/	-ty	.
*	*v	*v	*	*	*	*
=23	=23	=23	=23	=23	=23
*^	*	*	*	*	*
[>1c	2.C\	2.b- 2.g/	.	2.b-\	niech	.
.	4E\	4dd 4b-\	.	4dd\	o-	.
=24	=24	=24	=24	=24	=24	=24
2.c/_>	[<2.F 2.C\	(>2cc &(<2a/	.	2cc\	-wia-	.
.	.	4a) 4f/&)	.	4a/	-nie	.
4c/]	4F\]	4r	.	4r	.	.
!!LO:LB:g=original
=25	=25	=25	=25	=25	=25	=25
*	*	*^	*	*	*	*
(>2.c/	(<2.E\	(>2cc/	2.g\	.	(>2cc\	Wszy-	.
.	.	4b-/	.	.	4b-\	.	.
4B-/)	4C\)	4g/)	4e\	.	4g/)	-stkich	.
=26	=26	=26	=26	=26	=26	=26	=26
(>2c/	1F	2a/	1f	.	2a\	lu-	.
2A/)	.	2cc/	.	.	2cc\	-dzi	.
*v	*v	*	*	*	*	*	*
=27	=27	=27	=27	=27	=27	=27
4A 4AA/	2cc#X/	1a	.	(>2cc#X^>\	Do-	.
4G 4GG/	.	.	.	.	.	.
4F 4FF/	4dd/	.	.	4dd\	.	.
4C#X 4CC#X/	4ee/	.	.	4ee\)	-brej	.
*	*v	*v	*	*	*	*
=28	=28	=28	=28	=28	=28
[>1D [<1DD	(>1gg [>1dd &(<1a	.	1gg^>	wo-	.
=29	=29	=29	=29	=29	=29
*	*^	*	*	*	*
2D] 2DD/]	2ff 2dd/])	2b-\&)	.	2ff\	-li	.
2AA/	2ee 2cc#X/	(>4a\	.	4r	.	.
.	.	4g/)	.	(>4cc#X\	Do-	.
=30	=30	=30	=30	=30	=30	=30
[<2.BB-/	(>2dd/	(<2.f\	.	2dd\	.	.
.	4ff/)	.	.	4ff\)	.	.
8BB-/L]	4dd/	(>8g\L)	.	4dd\	-rej	.
8BBn/J	.	8g#X\J)	.	.	.	.
=31	=31	=31	=31	=31	=31	=31
*^	*	*	*	*	*	*
!	!LO:TX:a:t=P:problem=note position	!	!	!	!	!	!
!LO:TX:a:t=P:problem=w źródle dodatkowe łączenie pomiędzy nutami 2C i 2c [glissando?]	!	!	!	!	!	!	!
(>2C/	(<1C	2cc/	2a\	.	(>2cc\	wo-	.
2c/)	.	2b-/	2g\	.	2b-\)	.	.
=32	=32	=32	=32	=32	=32	=32	=32
2c/	2F\)	2a/	2f\	.	2a/	-li.	.
2F;< 2FF/	2ryy	2f;> 2c 2A/	2ryy	.	2r;>	.	.
*v	*v	*	*	*	*	*	*
*	*v	*v	*	*	*	*
==	==	==	==	==	==
*-	*-	*-	*-	*-	*-
!!title: @{OTL};
!!!RDF**kern: > = above
!!!RDF**kern: < = below
!!!RDF**kern: | = vertical stroke
!!!RDF**kern: N = linked
!!!RDF**kern: i = editorial accidental
!!!ENC: Tomasz Grochalski
!!!END: 2020-11-06
!!!EED: Wojciech Jakubiak-Danek
!!!EST: 2021-11-15
!!!URL-scan: http://repozytorium.nifc.pl/skany/pl-cz-nut--ii-87
!!!ONB-nifc: UWAGA: części Mszy: Kyrie, Gloria, Graduale, Credo, Et incarnatus, Et resurrexit, Offertorium, Sanctus, Benedictus, Agnus Dei, Benedictio
